src/Widgets/DataDeleteButtonWidget/thumbnail.svg

<svg viewBox="0 0 150 100" fill="none" xmlns="http://www.w3.org/2000/svg">
<g id="data-delete">
<path id="Rectangle 1" d="M16 15C16 12.7909 17.7909 11 20 11H131C132.657 11 134 12.3431 134 14V86C134 87.6569 132.657 89 131 89H19C17.3431 89 16 87.6569 16 86V15Z" stroke="#AAAAAA" stroke-width="2" stroke-linecap="round" stroke-dasharray="5 5"/>
<g id="Badge">
<g clip-path="url(#clip0_5_77)">
<rect x="23" y="18" width="36" height="13" rx="6.5" fill="#FF9F00"/>
<path id="DATA" d="M28.7 28.5V21.3H31.03C31.0867 21.3 31.2033 21.3017 31.38 21.305C31.5567 21.3083 31.7267 21.32 31.89 21.34C32.47 21.41 32.9617 21.6117 33.365 21.945C33.7683 22.2783 34.075 22.7017 34.285 23.215C34.495 23.7283 34.6 24.29 34.6 24.9C34.6 25.51 34.495 26.0717 34.285 26.585C34.075 27.0983 33.7683 27.5217 33.365 27.855C32.9617 28.1883 32.47 28.39 31.89 28.46C31.7267 28.48 31.5567 28.4917 31.38 28.495C31.2033 28.4983 31.0867 28.5 31.03 28.5H28.7ZM30.08 27.22H31.03C31.12 27.22 31.2417 27.2183 31.395 27.215C31.5483 27.2083 31.6867 27.1933 31.81 27.17C32.1233 27.1067 32.3783 26.96 32.575 26.73C32.775 26.5 32.9217 26.2233 33.015 25.9C33.1117 25.5767 33.16 25.2433 33.16 24.9C33.16 24.54 33.11 24.1983 33.01 23.875C32.9133 23.5517 32.765 23.2783 32.565 23.055C32.365 22.8317 32.1133 22.69 31.81 22.63C31.6867 22.6033 31.5483 22.5883 31.395 22.585C31.2417 22.5817 31.12 22.58 31.03 22.58H30.08V27.22ZM35.1043 28.5L37.3043 21.3H39.3343L41.5343 28.5H40.1343L38.1743 22.15H38.4343L36.5043 28.5H35.1043ZM36.4243 27V25.73H40.2243V27H36.4243ZM43.5048 28.5V22.57H41.2348V21.3H47.1348V22.57H44.8648V28.5H43.5048ZM47.243 28.5L49.443 21.3H51.473L53.673 28.5H52.273L50.313 22.15H50.573L48.643 28.5H47.243ZM48.563 27V25.73H52.363V27H48.563Z" fill="white"/>
</g>
</g>
<g id="Group" opacity="0.75">
<path id="Vector" d="M124.8 61H26C24.8954 61 24 61.8954 24 63V78.92C24 80.0246 24.8954 80.92 26 80.92H124.8C125.905 80.92 126.8 80.0246 126.8 78.92V63C126.8 61.8954 125.905 61 124.8 61Z" fill="#AAAAAA"/>
<path id="Vector_2" d="M124.8 62C125.35 62 125.8 62.45 125.8 63V78.92C125.8 79.47 125.35 79.92 124.8 79.92H26C25.45 79.92 25 79.47 25 78.92V63C25 62.45 25.45 62 26 62H124.8ZM124.8 60H26C24.34 60 23 61.34 23 63V78.92C23 80.58 24.34 81.92 26 81.92H124.8C126.46 81.92 127.8 80.58 127.8 78.92V63C127.8 61.34 126.46 60 124.8 60Z" fill="#AAAAAA"/>
</g>
<path id="Delete" d="M55.84 75V66.36H58.636C58.704 66.36 58.844 66.362 59.056 66.366C59.268 66.37 59.472 66.384 59.668 66.408C60.364 66.492 60.954 66.734 61.438 67.134C61.922 67.534 62.29 68.042 62.542 68.658C62.794 69.274 62.92 69.948 62.92 70.68C62.92 71.412 62.794 72.086 62.542 72.702C62.29 73.318 61.922 73.826 61.438 74.226C60.954 74.626 60.364 74.868 59.668 74.952C59.472 74.976 59.268 74.99 59.056 74.994C58.844 74.998 58.704 75 58.636 75H55.84ZM57.496 73.464H58.636C58.744 73.464 58.89 73.462 59.074 73.458C59.258 73.45 59.424 73.432 59.572 73.404C59.948 73.328 60.254 73.152 60.49 72.876C60.73 72.6 60.906 72.268 61.018 71.88C61.134 71.492 61.192 71.092 61.192 70.68C61.192 70.248 61.132 69.838 61.012 69.45C60.896 69.062 60.718 68.734 60.478 68.466C60.238 68.198 59.936 68.028 59.572 67.956C59.424 67.924 59.258 67.906 59.074 67.902C58.89 67.898 58.744 67.896 58.636 67.896H57.496V73.464ZM67.3715 75.18C66.7075 75.18 66.1215 75.038 65.6135 74.754C65.1095 74.466 64.7135 74.072 64.4255 73.572C64.1415 73.068 63.9995 72.492 63.9995 71.844C63.9995 71.136 64.1395 70.52 64.4195 69.996C64.6995 69.472 65.0855 69.066 65.5775 68.778C66.0695 68.486 66.6355 68.34 67.2755 68.34C67.9555 68.34 68.5335 68.5 69.0095 68.82C69.4855 69.14 69.8375 69.59 70.0655 70.17C70.2935 70.75 70.3735 71.432 70.3055 72.216H68.6915V71.616C68.6915 70.956 68.5855 70.482 68.3735 70.194C68.1655 69.902 67.8235 69.756 67.3475 69.756C66.7915 69.756 66.3815 69.926 66.1175 70.266C65.8575 70.602 65.7275 71.1 65.7275 71.76C65.7275 72.364 65.8575 72.832 66.1175 73.164C66.3815 73.492 66.7675 73.656 67.2755 73.656C67.5955 73.656 67.8695 73.586 68.0975 73.446C68.3255 73.306 68.4995 73.104 68.6195 72.84L70.2515 73.308C70.0075 73.9 69.6215 74.36 69.0935 74.688C68.5695 75.016 67.9955 75.18 67.3715 75.18ZM65.2235 72.216V71.004H69.5195V72.216H65.2235ZM71.7803 75V66.18H73.4123V75H71.7803ZM78.2231 75.18C77.5591 75.18 76.9731 75.038 76.4651 74.754C75.9611 74.466 75.5651 74.072 75.2771 73.572C74.9931 73.068 74.8511 72.492 74.8511 71.844C74.8511 71.136 74.9911 70.52 75.2711 69.996C75.5511 69.472 75.9371 69.066 76.4291 68.778C76.9211 68.486 77.4871 68.34 78.1271 68.34C78.8071 68.34 79.3851 68.5 79.8611 68.82C80.3371 69.14 80.6891 69.59 80.9171 70.17C81.1451 70.75 81.2251 71.432 81.1571 72.216H79.5431V71.616C79.5431 70.956 79.4371 70.482 79.2251 70.194C79.0171 69.902 78.6751 69.756 78.1991 69.756C77.6431 69.756 77.2331 69.926 76.9691 70.266C76.7091 70.602 76.5791 71.1 76.5791 71.76C76.5791 72.364 76.7091 72.832 76.9691 73.164C77.2331 73.492 77.6191 73.656 78.1271 73.656C78.4471 73.656 78.7211 73.586 78.9491 73.446C79.1771 73.306 79.3511 73.104 79.4711 72.84L81.1031 73.308C80.8591 73.9 80.4731 74.36 79.9451 74.688C79.4211 75.016 78.8471 75.18 78.2231 75.18ZM76.0751 72.216V71.004H80.3711V72.216H76.0751ZM86.3999 75C85.9519 75.084 85.5119 75.12 85.0799 75.108C84.6519 75.1 84.2679 75.026 83.9279 74.886C83.5919 74.742 83.3359 74.512 83.1599 74.196C82.9999 73.9 82.9159 73.6 82.9079 73.296C82.8999 72.988 82.8959 72.64 82.8959 72.252V66.72H84.5279V72.156C84.5279 72.408 84.5299 72.636 84.5339 72.84C84.5419 73.04 84.5839 73.2 84.6599 73.32C84.8039 73.548 85.0339 73.672 85.3499 73.692C85.6659 73.712 86.0159 73.696 86.3999 73.644V75ZM81.7919 69.78V68.52H86.3999V69.78H81.7919ZM90.4926 75.18C89.8286 75.18 89.2426 75.038 88.7346 74.754C88.2306 74.466 87.8346 74.072 87.5466 73.572C87.2626 73.068 87.1206 72.492 87.1206 71.844C87.1206 71.136 87.2606 70.52 87.5406 69.996C87.8206 69.472 88.2066 69.066 88.6986 68.778C89.1906 68.486 89.7566 68.34 90.3966 68.34C91.0766 68.34 91.6546 68.5 92.1306 68.82C92.6066 69.14 92.9586 69.59 93.1866 70.17C93.4146 70.75 93.4946 71.432 93.4266 72.216H91.8126V71.616C91.8126 70.956 91.7066 70.482 91.4946 70.194C91.2866 69.902 90.9446 69.756 90.4686 69.756C89.9126 69.756 89.5026 69.926 89.2386 70.266C88.9786 70.602 88.8486 71.1 88.8486 71.76C88.8486 72.364 88.9786 72.832 89.2386 73.164C89.5026 73.492 89.8886 73.656 90.3966 73.656C90.7166 73.656 90.9906 73.586 91.2186 73.446C91.4466 73.306 91.6206 73.104 91.7406 72.84L93.3726 73.308C93.1286 73.9 92.7426 74.36 92.2146 74.688C91.6906 75.016 91.1166 75.18 90.4926 75.18ZM88.3446 72.216V71.004H92.6406V72.216H88.3446Z" fill="white"/>
<g id="Ebene_1" clip-path="url(#clip1_5_77)">
<path id="Vector_3" d="M45.41 66.73H33.58" stroke="white" stroke-width="1.5" stroke-linecap="round" stroke-linejoin="round"/>
<path id="Vector_4" d="M37.88 69.96V74.26" stroke="white" stroke-width="1.5" stroke-linecap="round" stroke-linejoin="round"/>
<path id="Vector_5" d="M41.11 69.96V74.26" stroke="white" stroke-width="1.5" stroke-linecap="round" stroke-linejoin="round"/>
<path id="Vector_6" d="M36.81 64.58H42.19" stroke="white" stroke-width="1.5" stroke-linecap="round" stroke-linejoin="round"/>
<path id="Vector_7" d="M44.34 66.73V76.94C44.34 77.24 44.1 77.48 43.8 77.48H35.2C34.9 77.48 34.66 77.24 34.66 76.94V66.73" stroke="white" stroke-width="1.5" stroke-linecap="round" stroke-linejoin="round"/>
</g>
</g>
<defs>
<clipPath id="clip0_5_77">
<rect x="23" y="18" width="36" height="13" rx="6.5" fill="white"/>
</clipPath>
<clipPath id="clip1_5_77">
<rect width="12.99" height="14.07" fill="white" transform="translate(33 64)"/>
</clipPath>
</defs>
</svg>

<svg xmlns="http://www.w3.org/2000/svg" fill="none" viewBox="0 0 150 100"><path stroke="#AAA" stroke-dasharray="5 5" stroke-linecap="round" stroke-width="2" d="M16 15a4 4 0 0 1 4-4h111a3 3 0 0 1 3 3v72a3 3 0 0 1-3 3H19a3 3 0 0 1-3-3z"/><g clip-path="url(#a)"><rect width="36" height="13" x="23" y="18" fill="#FF9F00" rx="6.5"/><path fill="#fff" d="M28.7 28.5v-7.2h2.33l.35.005q.266.005.51.035.87.105 1.475.605t.92 1.27.315 1.685-.315 1.685-.92 1.27-1.475.605q-.244.03-.51.035l-.35.005zm1.38-1.28h.95q.135 0 .365-.005a3 3 0 0 0 .415-.045 1.32 1.32 0 0 0 .765-.44q.3-.345.44-.83a3.5 3.5 0 0 0 .145-1q0-.54-.15-1.025a2.1 2.1 0 0 0-.445-.82 1.33 1.33 0 0 0-.755-.425 2 2 0 0 0-.415-.045l-.365-.005h-.95zm5.024 1.28 2.2-7.2h2.03l2.2 7.2h-1.4l-1.96-6.35h.26l-1.93 6.35zm1.32-1.5v-1.27h3.8V27zm7.08 1.5v-5.93h-2.27V21.3h5.9v1.27h-2.27v5.93zm3.739 0 2.2-7.2h2.03l2.2 7.2h-1.4l-1.96-6.35h.26l-1.93 6.35zm1.32-1.5v-1.27h3.8V27z"/></g><g fill="#AAA" opacity=".75"><path d="M124.8 61H26a2 2 0 0 0-2 2v15.92a2 2 0 0 0 2 2h98.8a2 2 0 0 0 2-2V63a2 2 0 0 0-2-2"/><path d="M124.8 62c.55 0 1 .45 1 1v15.92c0 .55-.45 1-1 1H26c-.55 0-1-.45-1-1V63c0-.55.45-1 1-1zm0-2H26c-1.66 0-3 1.34-3 3v15.92c0 1.66 1.34 3 3 3h98.8c1.66 0 3-1.34 3-3V63c0-1.66-1.34-3-3-3"/></g><path fill="#fff" d="M55.84 75v-8.64h2.796l.42.006q.318.006.612.042 1.044.126 1.77.726t1.104 1.524a5.3 5.3 0 0 1 .378 2.022 5.3 5.3 0 0 1-.378 2.022 3.8 3.8 0 0 1-1.104 1.524q-.726.6-1.77.726-.294.036-.612.042l-.42.006zm1.656-1.536h1.14q.162 0 .438-.006.276-.012.498-.054.564-.114.918-.528.36-.414.528-.996.174-.582.174-1.2 0-.648-.18-1.23a2.54 2.54 0 0 0-.534-.984 1.6 1.6 0 0 0-.906-.51 2.6 2.6 0 0 0-.498-.054q-.276-.006-.438-.006h-1.14zm9.875 1.716q-.995 0-1.757-.426a3.15 3.15 0 0 1-1.189-1.182Q64 72.816 64 71.844q0-1.062.42-1.848t1.157-1.218q.739-.438 1.698-.438 1.02 0 1.734.48.716.48 1.056 1.35.343.87.24 2.046h-1.614v-.6q0-.99-.317-1.422-.313-.438-1.026-.438-.834 0-1.23.51-.39.504-.39 1.494 0 .906.39 1.404.396.492 1.157.492.48 0 .822-.21a1.34 1.34 0 0 0 .523-.606l1.631.468a2.87 2.87 0 0 1-1.157 1.38 3.2 3.2 0 0 1-1.722.492m-2.147-2.964v-1.212h4.295v1.212zM71.78 75v-8.82h1.632V75zm6.443.18q-.996 0-1.758-.426a3.15 3.15 0 0 1-1.188-1.182q-.426-.756-.426-1.728 0-1.062.42-1.848t1.158-1.218q.738-.438 1.698-.438 1.02 0 1.734.48t1.056 1.35.24 2.046h-1.614v-.6q0-.99-.318-1.422-.312-.438-1.026-.438-.834 0-1.23.51-.39.504-.39 1.494 0 .906.39 1.404.396.492 1.158.492.48 0 .822-.21a1.34 1.34 0 0 0 .522-.606l1.632.468a2.87 2.87 0 0 1-1.158 1.38 3.2 3.2 0 0 1-1.722.492m-2.148-2.964v-1.212h4.296v1.212zM86.4 75q-.672.126-1.32.108a3.2 3.2 0 0 1-1.152-.222 1.56 1.56 0 0 1-.768-.69 2 2 0 0 1-.252-.9 41 41 0 0 1-.012-1.044V66.72h1.632v5.436q0 .378.006.684.012.3.126.48.216.342.69.372t1.05-.048zm-4.608-5.22v-1.26H86.4v1.26zm8.7 5.4q-.996 0-1.757-.426a3.15 3.15 0 0 1-1.188-1.182q-.426-.756-.426-1.728 0-1.062.42-1.848t1.158-1.218q.738-.438 1.698-.438 1.02 0 1.734.48t1.056 1.35.24 2.046h-1.614v-.6q0-.99-.318-1.422-.312-.438-1.026-.438-.834 0-1.23.51-.39.504-.39 1.494 0 .906.39 1.404.396.492 1.158.492.48 0 .822-.21a1.34 1.34 0 0 0 .522-.606l1.632.468a2.87 2.87 0 0 1-1.158 1.38 3.2 3.2 0 0 1-1.722.492m-2.147-2.964v-1.212h4.296v1.212z"/><g stroke="#fff" stroke-linecap="round" stroke-linejoin="round" stroke-width="1.5" clip-path="url(#b)"><path d="M45.41 66.73H33.58m4.3 3.23v4.3m3.23-4.3v4.3m-4.3-9.68h5.38m2.15 2.15v10.21c0 .3-.24.54-.54.54h-8.6c-.3 0-.54-.24-.54-.54V66.73"/></g><defs><clipPath id="a"><rect width="36" height="13" x="23" y="18" fill="#fff" rx="6.5"/></clipPath><clipPath id="b"><path fill="#fff" d="M33 64h12.99v14.07H33z"/></clipPath></defs></svg>
